build/img/gardening.svg

<svg width="60" height="60" viewBox="0 0 60 60" fill="#686868" xmlns="http://www.w3.org/2000/svg">
<path d="M25.976 50C25.7199 44.9996 22.961 40.4651 18.638 37.939L11.73 30.264C10.8009 29.2113 9.35987 28.7685 8 29.118V16C8 13.7909 6.20913 12 4 12C1.79087 12 0 13.7909 0 16V34.927C0.001 36.4571 0.390875 37.9619 1.133 39.3L10 55.259V59C10 59.5522 10.4477 60 11 60H25C25.5522 60 26 59.5522 26 59V50H25.976ZM24 58H12V55C12 54.8299 11.9566 54.6626 11.874 54.514L2.881 38.327C2.30425 37.2865 2.00112 36.1166 2 34.927V16C2 14.8954 2.89538 14 4 14C5.10462 14 6 14.8954 6 16V30.353C4.74875 31.8071 4.7775 33.9658 6.067 35.386L14.26 44.4L15.74 43.054L7.547 34.041C6.894 33.3228 6.92037 32.2181 7.607 31.532C8.31625 30.8221 9.46675 30.8216 10.1766 31.531C10.1997 31.5541 10.2221 31.5778 10.244 31.602L17.257 39.394C17.3463 39.4838 17.4471 39.5611 17.557 39.624C21.5369 41.9044 23.9941 46.1381 24 50.725V58Z"/>
<path d="M56 12C53.7909 12 52 13.7909 52 16V29.118C51.6759 29.036 51.3424 28.9964 51.008 29C49.9598 29.0234 48.9683 29.4808 48.27 30.263L41.364 37.936C37.0351 40.4579 34.2739 44.9964 34.024 50H34V59C34 59.5522 34.4478 60 35 60H49C49.5523 60 50 59.5522 50 59V55.257L58.757 39.385C59.5704 38.0019 59.9995 36.4266 60 34.822V16C60 13.7909 58.2091 12 56 12ZM58 34.822C57.9985 36.0791 57.6601 37.313 57.02 38.395L48.12 54.517C48.0399 54.6654 47.9986 54.8315 48 55V58H36V50.725C36.0123 46.1203 38.4904 41.8749 42.494 39.6C42.5871 39.5471 42.6713 39.4796 42.743 39.4L49.756 31.6C50.4295 30.8544 51.5799 30.796 52.3255 31.4695C53.0711 32.143 53.1295 33.2934 52.456 34.039L44.26 43.052L45.74 44.4L53.933 35.388C55.2238 33.9674 55.2524 31.8074 54 30.353V16C54 14.8954 54.8954 14 56 14C57.1046 14 58 14.8954 58 16V34.822Z"/>
<path d="M42 25H40C36.4128 25.0039 33.0531 26.7584 31 29.7V23H32C38.0721 22.9929 42.9929 18.0721 43 12C43 11.4478 42.5523 11 42 11H40C36.4128 11.0039 33.0531 12.7584 31 15.7V9H32C36.4163 8.995 39.995 5.41625 40 1C40 0.44775 39.5522 0 39 0H37C34.0878 0.00175 31.4066 1.586 30 4.136C28.5934 1.586 25.9123 0.00175 23 0H21C20.4478 0 20 0.44775 20 1C20.005 5.41625 23.5838 8.995 28 9H29V15.7C26.9469 12.7584 23.5873 11.0039 20 11H18C17.4478 11 17 11.4478 17 12C17.0071 18.0721 21.9279 22.9929 28 23H29V29.7C26.9469 26.7584 23.5873 25.0039 20 25H18C17.4478 25 17 25.4478 17 26C17.0071 32.0721 21.9279 36.9929 28 37H29V45H31V37H32C38.0721 36.9929 42.9929 32.0721 43 26C43 25.4478 42.5523 25 42 25ZM40 13H40.945C40.43 17.5526 36.5816 20.9945 32 21H31.055C31.57 16.4474 35.4184 13.0055 40 13ZM37 2H37.917C37.4251 4.885 34.9266 6.99637 32 7H31.083C31.5749 4.115 34.0734 2.00362 37 2ZM28 7C25.0734 6.99637 22.5749 4.885 22.083 2H23C25.9266 2.00362 28.4251 4.115 28.917 7H28ZM28 21C23.4184 20.9945 19.57 17.5526 19.055 13H20C24.5816 13.0055 28.43 16.4474 28.945 21H28ZM28 35C23.4184 34.9945 19.57 31.5526 19.055 27H20C24.5816 27.0055 28.43 30.4474 28.945 35H28ZM32 35H31.055C31.57 30.4474 35.4184 27.0055 40 27H40.945C40.43 31.5526 36.5816 34.9945 32 35Z"/>
</svg>

<svg width="60" height="60" fill="#686868" xmlns="http://www.w3.org/2000/svg"><path d="M25.976 50c-.256-5-3.015-9.535-7.338-12.061l-6.908-7.675A3.735 3.735 0 008 29.118V16a4 4 0 00-8 0v18.927A9.029 9.029 0 001.133 39.3L10 55.259V59a1 1 0 001 1h14a1 1 0 001-1v-9h-.024zM24 58H12v-3a1 1 0 00-.126-.486L2.881 38.327a7.027 7.027 0 01-.881-3.4V16a2 2 0 114 0v14.353a3.8 3.8 0 00.067 5.033L14.26 44.4l1.48-1.346-8.193-9.013a1.818 1.818 0 112.697-2.439l7.013 7.792c.09.09.19.167.3.23A12.813 12.813 0 0124 50.725V58zM56 12a4 4 0 00-4 4v13.118a3.875 3.875 0 00-.992-.118 3.784 3.784 0 00-2.738 1.263l-6.906 7.673A14.817 14.817 0 0034.024 50H34v9a1 1 0 001 1h14a1 1 0 001-1v-3.743l8.757-15.872A9.007 9.007 0 0060 34.822V16a4 4 0 00-4-4zm2 22.822a7.034 7.034 0 01-.98 3.573l-8.9 16.122A1 1 0 0048 55v3H36v-7.275A12.835 12.835 0 0142.494 39.6a1 1 0 00.249-.2l7.013-7.8a1.82 1.82 0 112.7 2.439l-8.196 9.013 1.48 1.348 8.193-9.012A3.8 3.8 0 0054 30.353V16a2 2 0 114 0v18.822z"/><path d="M42 25h-2a10.99 10.99 0 00-9 4.7V23h1c6.072-.007 10.993-4.928 11-11a1 1 0 00-1-1h-2a10.99 10.99 0 00-9 4.7V9h1a8.009 8.009 0 008-8 1 1 0 00-1-1h-2a8 8 0 00-7 4.136A8 8 0 0023 0h-2a1 1 0 00-1 1 8.009 8.009 0 008 8h1v6.7a10.99 10.99 0 00-9-4.7h-2a1 1 0 00-1 1c.007 6.072 4.928 10.993 11 11h1v6.7a10.99 10.99 0 00-9-4.7h-2a1 1 0 00-1 1c.007 6.072 4.928 10.993 11 11h1v8h2v-8h1c6.072-.007 10.993-4.928 11-11a1 1 0 00-1-1zm-2-12h.945A9.013 9.013 0 0132 21h-.945A9.013 9.013 0 0140 13zM37 2h.917A6.01 6.01 0 0132 7h-.917A6.01 6.01 0 0137 2zm-9 5a6.01 6.01 0 01-5.917-5H23a6.01 6.01 0 015.917 5H28zm0 14a9.013 9.013 0 01-8.945-8H20a9.013 9.013 0 018.945 8H28zm0 14a9.013 9.013 0 01-8.945-8H20a9.013 9.013 0 018.945 8H28zm4 0h-.945A9.013 9.013 0 0140 27h.945A9.013 9.013 0 0132 35z"/></svg>
